X: 687
T: Panerlang
%%abc-version 2.0
%%abcx-abcm2ps-target-version 5.9.1 (29 Sep 2008)
%%abc-creator hum2abc beta
%%abcx-conversion-date 2013/10/02 07:52:30
%%abc-edited-by Helmut Schaffrath
%%humdrum-veritas 2882248668
%%humdrum-veritas-data 1533641625
%%continueall 1
%%barnumbers 0
L: 1/8
M: 2/4
K: A
c2c B/ F/ [I:setbarnb 1]| 
A Az2 | 
F A F E | 
C Cz2 | 
FA2B | 
c e c B | 
c> B B F | 
A4 | 
F A E G | 
F4 | 
F A C E | 
F4 | 
F A E G | 
F4 | 
F A C E | 
F4 | 
B2e c | 
B> c B A | 
E2A2 | 
B> A G F | 
E4 | 
A> F A3/ F/ | 
A4 | 
B2e c | 
E2A2 | 
B> A G F | 
E4 |]  



